img/stats (1).svg

<?xml version="1.0" encoding="UTF-8"?>
<svg width="48px" height="23px" viewBox="0 0 48 23" version="1.1" xmlns="http://www.w3.org/2000/svg" xmlns:xlink="http://www.w3.org/1999/xlink">
    <!-- Generator: Sketch 51.2 (57519) - http://www.bohemiancoding.com/sketch -->
    <title>stats</title>
    <desc>Created with Sketch.</desc>
    <defs></defs>
    <g id="Events" stroke="none" stroke-width="1" fill="none" fill-rule="evenodd">
        <g id="Assets" transform="translate(-146.000000, -339.000000)">
            <g id="stats" transform="translate(144.000000, 323.000000)">
                <circle id="Oval" fill-opacity="0" fill="#D8D8D8" cx="26" cy="26" r="26"></circle>
                <g id="line-chart" transform="translate(2.000000, 16.000000)" fill="#333333" fill-rule="nonzero">
                    <path d="M42.903385,9.47906363e-05 C40.0931404,9.47906363e-05 37.8068637,2.31175404 37.8068637,5.15319815 C37.8068637,6.18954418 38.1120193,7.15460765 38.6347683,7.96345615 L33.1285603,13.5307946 C32.3284994,13.002242 31.3740325,12.6936985 30.3490657,12.6936985 C29.286974,12.6936985 28.2998822,13.0243282 27.4825713,13.5886169 L21.9196447,7.96307699 C22.4422999,7.15422849 22.7472681,6.18925981 22.7472681,5.15310336 C22.7472681,2.31165925 20.4609913,0 17.6507468,0 C14.8405023,0 12.5542255,2.31165925 12.5542255,5.15310336 C12.5542255,6.18925981 12.8592874,7.15394411 13.3817551,7.96279261 L7.87535962,13.5304154 C7.07548618,13.0020524 6.12120679,12.6936985 5.0965213,12.6936985 C2.28627678,12.6936985 0,15.0054525 0,17.8468966 C0,20.6883408 2.28627678,23 5.0965213,23 C7.90676581,23 10.1930426,20.6883408 10.1930426,17.8468966 C10.1930426,16.8105506 9.88788694,15.8454871 9.36513796,15.0365439 L14.871346,9.46920541 C15.6714069,9.997758 16.6258738,10.3063015 17.6508405,10.3063015 C18.6757135,10.3063015 19.6301804,9.997758 20.4301476,9.46920541 L26.0238242,15.1257418 C25.5357626,15.9161062 25.2526382,16.8484669 25.2526382,17.8468018 C25.2526382,20.688246 27.538915,22.9999052 30.3491595,22.9999052 C33.159404,22.9999052 35.4456808,20.688246 35.4456808,17.8468018 C35.4456808,16.8106454 35.1406189,15.8458663 34.6181511,15.0371126 L40.1246404,9.46948978 C40.9246076,9.99785279 41.878887,10.3062067 42.9034787,10.3062067 C45.7137232,10.3062067 48,7.99454748 48,5.15310336 C48,2.31156446 45.7136295,9.47906363e-05 42.903385,9.47906363e-05 Z M5.0965213,20.8699596 C3.44783702,20.8699596 2.10655839,19.51379 2.10655839,17.8468966 C2.10655839,16.1799085 3.44783702,14.8237389 5.0965213,14.8237389 C6.74511183,14.8237389 8.08648421,16.1799085 8.08648421,17.8468966 C8.08648421,19.51379 6.74520558,20.8699596 5.0965213,20.8699596 Z M17.6508405,8.17626113 C16.00225,8.17626113 14.6608776,6.82009149 14.6608776,5.15310336 C14.6608776,3.48621002 16.0021562,2.1299456 17.6508405,2.1299456 C19.2995248,2.1299456 20.6408034,3.48611523 20.6408034,5.15310336 C20.6408034,6.82009149 19.2995248,8.17626113 17.6508405,8.17626113 Z M30.3490657,20.8699596 C28.7004752,20.8699596 27.3591028,19.51379 27.3591028,17.8468018 C27.3591028,16.1798137 28.7003814,14.8236441 30.3490657,14.8236441 C31.9976563,14.8236441 33.3390286,16.1798137 33.3390286,17.8468018 C33.3389349,19.51379 31.9976563,20.8699596 30.3490657,20.8699596 Z M42.903385,8.17626113 C41.2547944,8.17626113 39.913422,6.82009149 39.913422,5.15310336 C39.913422,3.48621002 41.2547007,2.1299456 42.903385,2.1299456 C44.5519755,2.1299456 45.8933479,3.48611523 45.8933479,5.15310336 C45.8933479,6.82009149 44.5519755,8.17626113 42.903385,8.17626113 Z" id="Shape"></path>
                    <path d="M16.7094973,12.2903744 C16.3222485,11.9032085 15.6945138,11.9032085 15.3072651,12.2903744 L13.2903593,14.3073079 C12.9031989,14.6944737 12.9031989,15.3223054 13.2904476,15.7095595 C13.4840719,15.9031865 13.7377957,16 13.9915196,16 C14.2452434,16 14.4990554,15.9030982 14.6925915,15.7095595 L16.7094973,13.6926259 C17.0968342,13.3054601 17.0968342,12.6775402 16.7094973,12.2903744 Z" id="Shape"></path>
                    <path d="M35.7096375,6.29036413 C35.3223845,5.90319725 34.694731,5.90319725 34.3073015,6.29045238 L32.2903736,8.30739148 C31.9032088,8.69455836 31.9032088,9.32239177 32.2903736,9.7096469 C32.4840883,9.90318622 32.7378149,10 32.9915415,10 C33.2453564,10 33.4989947,9.90309796 33.6926212,9.70955865 L35.7095492,7.69261955 C36.0968022,7.30536442 36.0968022,6.67753101 35.7096375,6.29036413 Z" id="Shape"></path>
                </g>
            </g>
        </g>
    </g>
</svg>

<svg xmlns="http://www.w3.org/2000/svg" width="48" height="23" fill-rule="evenodd"><circle fill-opacity="0" fill="#d8d8d8" cx="24" cy="10" r="26"/><path d="M42.903 0c-2.8 0-5.097 2.312-5.097 5.153a5.16 5.16 0 0 0 .828 2.81L33.13 13.53c-.8-.53-1.755-.837-2.78-.837a5.03 5.03 0 0 0-2.866.895L21.92 7.963a5.16 5.16 0 0 0 .828-2.81C22.747 2.312 20.46 0 17.65 0s-5.097 2.312-5.097 5.153a5.16 5.16 0 0 0 .828 2.81L7.875 13.53a5.03 5.03 0 0 0-2.78-.837c-2.8 0-5.097 2.312-5.097 5.153S2.286 23 5.097 23s5.097-2.312 5.097-5.153a5.16 5.16 0 0 0-.828-2.81L14.87 9.47c.8.53 1.755.837 2.78.837a5.04 5.04 0 0 0 2.78-.837l5.594 5.657c-.488.8-.77 1.723-.77 2.72 0 2.84 2.286 5.153 5.097 5.153s5.097-2.312 5.097-5.153a5.16 5.16 0 0 0-.828-2.81l5.506-5.568a5.03 5.03 0 0 0 2.78.837c2.8 0 5.097-2.312 5.097-5.153S45.714 0 42.903 0zM5.097 20.87c-1.65 0-3-1.356-3-3.023s1.34-3.023 3-3.023 3 1.356 3 3.023-1.34 3.023-3 3.023zM17.65 8.176c-1.65 0-3-1.356-3-3.023s1.34-3.023 3-3.023 3 1.356 3 3.023-1.34 3.023-3 3.023zm12.7 12.694c-1.65 0-3-1.356-3-3.023s1.34-3.023 3-3.023 3 1.356 3 3.023-1.34 3.023-3 3.023zM42.903 8.176c-1.65 0-3-1.356-3-3.023s1.34-3.023 3-3.023 3 1.356 3 3.023-1.34 3.023-3 3.023zM16.7 12.3a.99.99 0 0 0-1.402 0L13.3 14.307A.99.99 0 0 0 13.992 16a.99.99 0 0 0 .701-.29l2.017-2.017a.99.99 0 0 0 0-1.402zm19-6a.99.99 0 0 0-1.402 0L32.3 8.307A.99.99 0 0 0 32.992 10a.99.99 0 0 0 .701-.29L35.7 7.693a.99.99 0 0 0 0-1.402z" fill="#333" fill-rule="nonzero"/></svg>
